icon_installer/data/icons/scalable/actions/show-object-packing-symbolic.svg

<?xml version="1.0" encoding="UTF-8"?>
<svg height="16px" viewBox="0 0 16 16" width="16px" xmlns="http://www.w3.org/2000/svg">
    <g fill="#222222">
        <path d="m 3 9 h 4.015625 v 4 h -4.015625 z m 0 0"/>
        <path d="m 8 9 h 5 v 4 h -5 z m 0 0"/>
        <path d="m 0.988281 0.96875 v 14.03125 h 14.011719 v -14.03125 z m 1 1 h 12.011719 v 5.03125 h -12.011719 z m 0 6.03125 h 12.011719 v 6 h -12.011719 z m 0 0" fill-opacity="0.34902"/>
        <path d="m 3 3 h 10 v 3 h -10 z m 0 0"/>
    </g>
</svg>

<svg xmlns="http://www.w3.org/2000/svg" width="16" height="16"><g fill="#222"><path d="M3 9h4.016v4H3zm5 0h5v4H8zm0 0"/><path fill-opacity=".349" d="M.988.969V15H15V.969zm1 1H14V7H1.988zm0 6.031H14v6H1.988zm0 0"/><path d="M3 3h10v3H3zm0 0"/></g></svg>
